Catalina-dark/actions/16/mail-mark-read.svg

<?xml version="1.0" encoding="UTF-8" standalone="no"?>
<svg
   xmlns:dc="http://purl.org/dc/elements/1.1/"
   xmlns:cc="http://creativecommons.org/ns#"
   xmlns:rdf="http://www.w3.org/1999/02/22-rdf-syntax-ns#"
   xmlns:svg="http://www.w3.org/2000/svg"
   xmlns="http://www.w3.org/2000/svg"
   xmlns:sodipodi="http://sodipodi.sourceforge.net/DTD/sodipodi-0.dtd"
   xmlns:inkscape="http://www.inkscape.org/namespaces/inkscape"
   width="16"
   height="16"
   viewBox="0 0 16 16"
   version="1.1"
   id="svg7"
   sodipodi:docname="mail-mark-read.svg"
   inkscape:version="0.92.4 5da689c313, 2019-01-14">
  <metadata
     id="metadata11">
    <rdf:RDF>
      <cc:Work
         rdf:about="">
        <dc:format>image/svg+xml</dc:format>
        <dc:type
           rdf:resource="http://purl.org/dc/dcmitype/StillImage" />
      </cc:Work>
    </rdf:RDF>
  </metadata>
  <sodipodi:namedview
     pagecolor="#ffffff"
     bordercolor="#666666"
     borderopacity="1"
     objecttolerance="10"
     gridtolerance="10"
     guidetolerance="10"
     inkscape:pageopacity="0"
     inkscape:pageshadow="2"
     inkscape:window-width="640"
     inkscape:window-height="480"
     id="namedview9"
     showgrid="false"
     inkscape:zoom="14.75"
     inkscape:cx="6.8135593"
     inkscape:cy="8"
     inkscape:window-x="0"
     inkscape:window-y="26"
     inkscape:window-maximized="0"
     inkscape:current-layer="svg7" />
  <defs
     id="defs3">
    <style
       id="current-color-scheme"
       type="text/css">
   .ColorScheme-Text { color:#5c616c; } .ColorScheme-Highlight { color:#5294e2; }
  </style>
  </defs>
  <path
     style="fill:#f1f6f8;fill-opacity:0.8509804"
     class="ColorScheme-Text"
     d="M 2 2.0039062 C 0.892 2.0039062 0 2.8959063 0 4.0039062 L 0 12.003906 C 0 13.111906 0.892 14.003906 2 14.003906 L 14 14.003906 C 15.108 14.003906 16 13.111906 16 12.003906 L 16 4.0039062 C 16 2.8959062 15.108 2.0039062 14 2.0039062 L 2 2.0039062 z M 12.525391 3.9101562 C 12.905391 3.9444562 13.183594 4.21875 13.183594 4.21875 C 13.183594 4.21875 13.903594 4.9451125 13.183594 5.6328125 L 13.183594 5.6347656 L 6.8203125 12 L 3.2832031 8.4628906 C 2.9056031 8.1038906 2.9056031 7.405775 3.2832031 7.046875 C 3.6608031 6.687875 4.3196656 6.687875 4.6972656 7.046875 L 6.8183594 9.1699219 L 11.767578 4.21875 C 12.031578 3.95455 12.297391 3.8894563 12.525391 3.9101562 z"
     id="path5" />
</svg>

<svg width="16" height="16" version="1.1" viewBox="0 0 16 16" xmlns="http://www.w3.org/2000/svg">
<defs>
<style id="current-color-scheme" type="text/css">.ColorScheme-Text { color:#5c616c; } .ColorScheme-Highlight { color:#5294e2; }</style>
</defs>
<path class="ColorScheme-Text" d="m2 2.0039c-1.108 0-2 0.892-2 2v8c0 1.108 0.892 2 2 2h12c1.108 0 2-0.892 2-2v-8c0-1.108-0.892-2-2-2h-12zm10.525 1.9062c0.38 0.0343 0.6582 0.30859 0.6582 0.30859s0.72 0.72636 0 1.4141v0.0019531l-6.3633 6.3652-3.5371-3.5371c-0.3776-0.359-0.3776-1.0571 0-1.416 0.3776-0.359 1.0365-0.359 1.4141 0l2.1211 2.123 4.9492-4.9512c0.264-0.2642 0.52981-0.32929 0.75781-0.30859z" fill="#dedede" fill-opacity=".85098"/>
</svg>
